X: 176
T:All Around The Maypole See How They Trott. JC.175
M:C|
L:1/8
Q:160
S:John Clare,Poet,Helpstone (1793-1864)
R:Air
O:England
A:Northamptonshire
N:
Z:vmp.P. Headford
K:G
GABcd2d2|g2g2e4|d2z2B2z2|AGABG4:|!
|:gggge2d2|ggggA2G2|gggg ffff|egfed4|!
GABcd2d2|g2g2e4|d2z2B2z2|AGABG4:|]
W:Song text exists,(or not). See Deacon.|
